public/img/moods/numb.svg

<?xml version="1.0" encoding="UTF-8" standalone="no"?>
<!-- Generator: Adobe Illustrator 16.0.0, SVG Export Plug-In . SVG Version: 6.00 Build 0)  -->
<!DOCTYPE svg  PUBLIC '-//W3C//DTD SVG 1.1//EN'  'http://www.w3.org/Graphics/SVG/1.1/DTD/svg11.dtd'>
<svg id="Capa_1" style="enable-background:new 0 0 478.2 478.2" xmlns="http://www.w3.org/2000/svg" xml:space="preserve" height="512px" viewBox="0 0 478.2 478.2" width="512px" version="1.1" y="0px" x="0px" xmlns:xlink="http://www.w3.org/1999/xlink">
	<path d="m239.1 286.9c-47.8 0-86.1 21-86.1 47.8s38.2 47.8 86.1 47.8c47.9 0 86.101-21 86.101-47.8-0.1-26.8-38.3-47.8-86.1-47.8zm0 76.5c-36.3 0-66.899-13.4-66.899-28.7s30.6-28.7 66.9-28.7c36.301 0 66.9 13.4 66.9 28.7s-30.6 28.7-66.9 28.7zm-86.1-189.4l-26.8 17.3-9.5-15.4 19.1-13.3-19.1-13.4 9.5-15.3 26.8 17.2 26.8-17.2 9.5 15.3-19.1 13.4 19.1 13.3-9.5 15.4-26.8-17.3zm86.1-174c-132 0-239.1 107.1-239.1 239.1s107.1 239.1 239.1 239.1 239.1-107.1 239.1-239.1-107.2-239.1-239.1-239.1zm0 459c-122.4 0-219.9-97.5-219.9-219.9s97.5-219.9 219.9-219.9 219.9 97.5 219.9 219.9-97.5 219.9-219.9 219.9zm122.4-309.8l-19.2 13.4 19.2 13.3-9.6 15.4-26.8-17.3-26.7 17.3-9.601-15.4 19.101-13.3-19.1-13.4 9.601-15.3 26.699 17.2 26.801-17.2 9.6 15.3z" fill="#52646f"/>
</svg>

<?xml version="1.0" encoding="iso-8859-1"?>
<!-- Generator: Adobe Illustrator 16.0.0, SVG Export Plug-In . SVG Version: 6.00 Build 0)  -->
<!DOCTYPE svg PUBLIC "-//W3C//DTD SVG 1.1//EN" "http://www.w3.org/Graphics/SVG/1.1/DTD/svg11.dtd">
<svg xmlns="http://www.w3.org/2000/svg" xmlns:xlink="http://www.w3.org/1999/xlink" version="1.1" id="Capa_1" x="0px" y="0px" width="512px" height="512px" viewBox="0 0 478.2 478.2" style="enable-background:new 0 0 478.2 478.2;" xml:space="preserve">
<g>
	<path d="M239.1,286.9c-47.8,0-86.1,21-86.1,47.8s38.2,47.8,86.1,47.8c47.9,0,86.101-21,86.101-47.8   C325.1,307.9,286.9,286.9,239.1,286.9z M239.1,363.4c-36.3,0-66.899-13.4-66.899-28.7S202.8,306,239.1,306   c36.301,0,66.9,13.4,66.9,28.7S275.4,363.4,239.1,363.4z M153,174l-26.8,17.3l-9.5-15.4l19.1-13.3l-19.1-13.4l9.5-15.3l26.8,17.2   l26.8-17.2l9.5,15.3l-19.1,13.4l19.1,13.3l-9.5,15.4L153,174z M239.1,0C107.1,0,0,107.1,0,239.1C0,371.1,107.1,478.2,239.1,478.2   C371.1,478.2,478.2,371.1,478.2,239.1C478.2,107.1,371,0,239.1,0z M239.1,459C116.7,459,19.2,361.5,19.2,239.1   C19.2,116.7,116.7,19.2,239.1,19.2C361.5,19.2,459,116.7,459,239.1C459,361.5,361.5,459,239.1,459z M361.5,149.2l-19.2,13.4   l19.2,13.3l-9.6,15.4L325.1,174L298.4,191.3l-9.601-15.4l19.101-13.3L288.8,149.2l9.601-15.3l26.699,17.2l26.801-17.2L361.5,149.2z   " fill="#52646f"/>
</g>
<g>
</g>
<g>
</g>
<g>
</g>
<g>
</g>
<g>
</g>
<g>
</g>
<g>
</g>
<g>
</g>
<g>
</g>
<g>
</g>
<g>
</g>
<g>
</g>
<g>
</g>
<g>
</g>
<g>
</g>
</svg>
